src/pages/elements/app-icons/images/1_2-27_StrokeIcons_Elements_Monochromatic_Dark.svg

<svg id="Layer_1" data-name="Layer 1" xmlns="http://www.w3.org/2000/svg" viewBox="0 0 288 288"><defs><linearGradient id="linear-gradient" x1="159.52" y1="145.51" x2="227.51" y2="145.51" gradientTransform="translate(-66.5 49.5)" gradientUnits="userSpaceOnUse"><stop offset="0" stop-opacity="0"/><stop offset=".83"/></linearGradient><style>.cls-1{fill:#f3f3f3}</style></defs><path d="M0 0h288v288H0z"/><path id="Solid_Icon_White_" data-name="Solid Icon (White)" class="cls-1" d="M223.36 110H178V81.7a17 17 0 00-17-17h-34a17 17 0 00-17 17V110H76a11.34 11.34 0 00-11 14.08l17 68a11.34 11.34 0 0011 8.58h56.7v-11.3H93l-17-68h147.36zm-102-28.33A5.67 5.67 0 01127 76h34a5.67 5.67 0 015.66 5.67V110h-45.3z"/><path fill="url(#linear-gradient)" d="M93.02 183.68H161v22.66H93.02z" id="Gradients_black_" data-name="Gradients (black)"/><path class="cls-1" d="M234.67 144h-11.34a56.71 56.71 0 01-56.65 56.66V212a68.07 68.07 0 0067.99-68zm-67.99 22.68V178a34 34 0 0034-34h-11.34a22.69 22.69 0 01-22.66 22.68z"/></svg>

<svg id="Layer_1" data-name="Layer 1" xmlns="http://www.w3.org/2000/svg" xmlns:xlink="http://www.w3.org/1999/xlink" viewBox="0 0 288 288"><defs><style>.cls-1{fill:#f3f3f3;}.cls-2{fill:url(#linear-gradient);}</style><linearGradient id="linear-gradient" x1="159.52" y1="145.51" x2="227.51" y2="145.51" gradientTransform="translate(-66.5 49.5)" gradientUnits="userSpaceOnUse"><stop offset="0" stop-opacity="0"/><stop offset="0.83"/></linearGradient></defs><title>Artboard 18 copy 52</title><rect width="288" height="288"/><path id="Solid_Icon_White_" data-name="Solid Icon (White)" class="cls-1" d="M223.36,110H178V81.7a17,17,0,0,0-17-17H127a17,17,0,0,0-17,17V110H76a11.34,11.34,0,0,0-11,14.08l17,68a11.34,11.34,0,0,0,11,8.58H149.7V189.36H93l-17-68H223.36Zm-102-28.33A5.67,5.67,0,0,1,127,76h34a5.67,5.67,0,0,1,5.66,5.67V110H121.36Z"/><g id="Gradients_black_" data-name="Gradients (black)"><rect class="cls-2" x="93.02" y="183.68" width="67.98" height="22.66"/></g><path class="cls-1" d="M234.67,144H223.33a56.71,56.71,0,0,1-56.65,56.66V212A68.07,68.07,0,0,0,234.67,144Z"/><path class="cls-1" d="M166.68,166.68V178a34,34,0,0,0,34-34H189.34A22.69,22.69,0,0,1,166.68,166.68Z"/></svg>
